X: 45
T: Praeludia organi op. 5 – Allegro moderato
C: Franciszek Walczyński
%%abc-version 2.0
%%abcx-abcm2ps-target-version 5.9.1 (29 Sep 2008)
%%abc-creator hum2abc beta
%%abcx-conversion-date 2021/10/04 07:38:40
%%abc-edited-by Andrzej Borzym
%%abc-edited-by Krzysztof Stępień
%%abcx-initial-encoding-date 2021-07-26
%%humdrum-veritas 262375871
%%humdrum-veritas-data 4110600143
%%linebreak <none>
%%barnumbers 0
L: 1/8
M: 3/4
N: Derived from pl-kozmzk--mzk-m-159--034_walczynski-franciszek--praeludia-organi-op-5-allegro-moderato.krn
Q: "34. Allegro moderato."
%%staves {1 2}
V: 1 clef=treble
V: 2 clef=bass
K: Eb
[V:1] z6 & z6 | 
[V:2] z6 & E,D,.E,.F,.G,.A, | 
[V:1] z6 & z6 | 
[V:2] z6 & B,2G,2E,2 | 
[V:1] z6 & z6 | 
[V:2] B,=A,.B,.C.D.E & D,C,.D,.E,.F,.G, | 
[V:1] z6 & z6 | 
[V:2] F2D2B,_A, & A,2F,2F,2 | 
[V:1] z6 & ED.E.F.G.A | 
[V:2] G,F,.G,.A,.B,.C & E,6- | 
[V:1] z6 & B2G2E2 | 
[V:2] _D6 & E,6- | 
[V:1] AG.A.B.c._d & E6 | 
[V:2] CB,.C.G,.A,.B, & E,6- | 
[V:1] e2c2A2 & A4E2 | 
[V:2] C2E2C2 & E,6 | 
[V:1] B=A.B.c.=d.e & F6- | 
[V:2] =D6 & A,6- | 
[V:1] f2d2B2 & F6 | 
[V:2] B,=A,.B,.C.D.B, & A,6 | 
[V:1] e2c2B2 & E6 | 
[V:2] B,6 & G,2_G,4 | 
[V:1] B2=A2_A2 & E4F2 | 
[V:2] C=B,.C.E.D.C- & F,6 | 
[V:1] !fermata!G6 & D6 | 
[V:2] C2=B,=A,!fermata!B,2 & !fermata!G,6 | 
[V:1] G^F.G.=A.=B.c & z6 | 
[V:2] z6 & z6 | 
[V:1] d2=B2G2 & z6 | 
[V:2] z6 & z6 | 
[V:1] e6 & G4c2- | 
[V:2] C=B,.C.D.E.C & z6 | 
[V:1] !fermata!d6 & c2=B=A!fermata!B2 | 
[V:2] G6 & !fermata!z6 | 
[V:1] e6- & _B6- | 
[V:2] G6- & E,D,.E,.F,.G,.A, | 
[V:1] e6 & B6 | 
[V:2] G6 & B,2G,2E,2 | 
[V:1] f6 & c=BcedA | 
[V:2] F4B,2 & A,2F,2B,2 | 
[V:1] !accent!e6 & G6 | 
[V:2] B,2CDED & E,6- | 
[V:1] e6- & B2cBAG | 
[V:2] _D6- & E,6- | 
[V:1] e6 & B2A4 | 
[V:2] D2C=B,CA, & E,6 | 
[V:1] e6- & A2BAGF | 
[V:2] _C2A,2C2 & E,6- | 
[V:1] e6 & A2G4 | 
[V:2] _C2B,=A,B,G, & E,6 | 
[V:1] E6- & _D2CB,A,G, | 
[V:2] E,,2F,,G,,A,,B,, & E,,6- | 
[V:1] E6 & B,2A,4- | 
[V:2] C,4_C,2- & E,,6 | 
[V:1] A2FE=DF & A,6 | 
[V:2] C,6 & E,,6- | 
[V:1] E6 & G,6 | 
[V:2] B,,2=A,,2B,,2 & E,,6 | 
[V:1] E6- & A,2G,2F,2 | 
[V:2] =C,2B,,2_A,,2 & E,,6- | 
[V:1] E6- & A,6 | 
[V:2] C,6 & E,,6- | 
[V:1] !fermata!E6 & G,6 |]  
[V:2] B,,6 & !fermata!E,,6 |]  


